dist/flags/s/504.svg

<svg width="16" height="12" viewBox="0 0 16 12" fill="none" xmlns="http://www.w3.org/2000/svg">
<mask id="mask0" mask-type="alpha" maskUnits="userSpaceOnUse" x="0" y="0" width="16" height="12">
<rect width="16" height="12" fill="white"/>
</mask>
<g mask="url(#mask0)">
<path fill-rule="evenodd" clip-rule="evenodd" d="M0 0H16V11C16 11.5523 15.5523 12 15 12H1C0.447715 12 0 11.5523 0 11V0Z" fill="#C51918"/>
<path fill-rule="evenodd" clip-rule="evenodd" d="M0 0H16V12H0V0Z" fill="#E31D1C"/>
<path fill-rule="evenodd" clip-rule="evenodd" d="M11.2409 9.81312L8.08288 1.35034H7.94584L4.89755 9.81312L8.06324 7.91054L11.2409 9.81312ZM7.73327 4.11105L8.07183 2.79188L8.42317 4.14884L9.43249 6.97708L10.0251 8.34635L8.74572 7.44501L8.06251 7.03595L7.39031 7.43994L6.14064 8.34635L6.71834 6.94902L7.73327 4.11105Z" fill="#579D20"/>
<path fill-rule="evenodd" clip-rule="evenodd" d="M6.33127 6.73663L8.07924 7.8986L9.71032 6.73663L12.8082 4.11829H3.19263L6.33127 6.73663ZM6.36754 5.73712L5.17874 5.00963H6.62908H9.51095H10.7903L9.76986 5.65601L8.07164 6.94449L6.36754 5.73712Z" fill="#579D20"/>
</g>
</svg>

<svg width="16" height="12" fill="none" xmlns="http://www.w3.org/2000/svg">
  <mask id="a" maskUnits="userSpaceOnUse" x="0" y="0" width="16" height="12">
    <path fill="#fff" d="M0 0h16v12H0z"/>
  </mask>
  <g mask="url(#a)" fill-rule="evenodd" clip-rule="evenodd">
    <path d="M0 0h16v11a1 1 0 01-1 1H1a1 1 0 01-1-1V0z" fill="#C51918"/>
    <path d="M0 0h16v12H0V0z" fill="#E31D1C"/>
    <path d="M11.241 9.813L8.083 1.35h-.137L4.898 9.813 8.063 7.91l3.178 1.903zM7.733 4.111l.339-1.32.351 1.358 1.01 2.828.592 1.37-1.28-.902-.682-.41-.673.405-1.25.906.578-1.397 1.015-2.838z" fill="#579D20"/>
    <path d="M6.331 6.737L8.08 7.899l1.63-1.162 3.098-2.619H3.193L6.33 6.737zm.037-1l-1.19-.727h5.613l-1.021.646-1.698 1.288-1.704-1.207z" fill="#579D20"/>
  </g>
</svg>
